src/assets/tokens/SVY.svg

<svg width="200" height="200" viewBox="0 0 200 200" fill="none" xmlns="http://www.w3.org/2000/svg">
<path d="M166.671 0H33.3291C14.922 0 0 14.922 0 33.3291V166.671C0 185.078 14.922 200 33.3291 200H166.671C185.078 200 200 185.078 200 166.671V33.3291C200 14.922 185.078 0 166.671 0Z" fill="#7A44FF"/>
<path d="M125.793 112.635V100.004C125.802 95.5682 124.608 91.2095 122.335 87.3734C121.207 85.4613 119.829 83.7013 118.237 82.1381C115.842 79.7926 113 77.9323 109.871 76.6633C106.743 75.3944 103.39 74.7418 100.004 74.7427H55.3429C57.0543 71.8351 59.0616 69.1047 61.334 66.5933C62.043 65.797 62.7778 65.0261 63.5472 64.2806C64.3167 63.5351 65.1034 62.8066 65.9074 62.1119C68.4725 59.8852 71.2586 57.9157 74.2241 56.2328C78.2586 53.9413 82.5961 52.2053 87.1142 51.0738C95.5695 48.9391 104.439 48.9391 112.894 51.0738C120.757 53.0374 128.028 56.8131 134.101 62.0865C134.914 62.7812 135.701 63.5012 136.47 64.2552C137.239 65.0091 137.974 65.7715 138.683 66.5678C144.051 72.5278 147.903 79.6489 149.922 87.348H163.149C162.254 83.0079 160.889 78.7738 159.077 74.7173C157.099 70.2472 154.598 66.0172 151.625 62.1119C149.798 59.7141 147.795 57.4491 145.634 55.3349C143.47 53.2234 141.159 51.2618 138.718 49.4642C131.078 43.8441 122.257 39.9633 112.894 38.1042C104.387 36.4213 95.6218 36.4213 87.1142 38.1042C77.7666 39.9731 68.9605 43.8564 61.334 49.4727C58.8946 51.2727 56.5838 53.2341 54.4178 55.3433C52.2615 57.4599 50.2623 59.7247 48.4353 62.1204C42.7016 69.5912 38.7409 78.2213 36.842 87.3819H74.2241V100.013C74.218 104.448 75.4112 108.806 77.6822 112.643C79.9445 116.487 83.2008 119.677 87.1228 121.894C91.0391 124.118 95.4864 125.287 100.013 125.283H144.709C142.995 128.188 140.987 130.918 138.718 133.432C138.009 134.228 137.265 134.999 136.505 135.753C135.744 136.507 134.948 137.219 134.136 137.922C131.571 140.143 128.788 142.11 125.828 143.792C121.789 146.083 117.449 147.822 112.929 148.96C104.472 151.084 95.6055 151.084 87.1488 148.96C82.6205 147.83 78.2718 146.097 74.2241 143.809C71.258 142.108 68.4721 140.121 65.9074 137.879C65.1034 137.176 64.3167 136.456 63.5472 135.711C62.7778 134.965 62.043 134.186 61.334 133.39C55.9658 127.43 52.1144 120.309 50.0952 112.61H36.842C38.7428 121.772 42.7032 130.405 48.4353 137.879C50.2623 140.275 52.2615 142.54 54.4178 144.657C56.5816 146.768 58.8926 148.73 61.334 150.527C68.9605 156.143 77.7666 160.027 87.1142 161.896C95.6218 163.579 104.387 163.579 112.894 161.896C122.236 160.028 131.036 156.148 138.657 150.536C141.101 148.741 143.412 146.779 145.573 144.665C147.735 142.551 149.737 140.286 151.565 137.888C154.564 133.975 157.088 129.733 159.086 125.249C160.897 121.192 162.262 116.958 163.158 112.618L125.793 112.635ZM112.894 112.635H100.004C98.3112 112.636 96.6345 112.31 95.0701 111.676C93.5057 111.041 92.0842 110.111 90.8871 108.938C89.6899 107.765 88.7405 106.372 88.0931 104.839C87.4457 103.306 87.113 101.663 87.1142 100.004V87.3734H100.004C101.698 87.3712 103.375 87.6964 104.94 88.3303C106.505 88.9643 107.927 89.8946 109.124 91.0679C110.321 92.2412 111.271 93.6345 111.918 95.168C112.565 96.7014 112.897 98.3449 112.894 100.004V112.635Z" fill="white"/>
</svg>

<svg width="200" height="200" fill="none" xmlns="http://www.w3.org/2000/svg"><path d="M166.671 0H33.329C14.922 0 0 14.922 0 33.33v133.34C0 185.078 14.922 200 33.33 200h133.34c18.408 0 33.33-14.922 33.33-33.329V33.329C200 14.922 185.078 0 166.671 0z" fill="#7A44FF"/><path d="M125.793 112.635v-12.631a24.67 24.67 0 0 0-3.458-12.63 25.493 25.493 0 0 0-4.098-5.236 25.823 25.823 0 0 0-8.366-5.475 26.238 26.238 0 0 0-9.867-1.92H55.343a49.791 49.791 0 0 1 5.991-8.15 43.382 43.382 0 0 1 2.213-2.312 56.384 56.384 0 0 1 2.36-2.17 51.37 51.37 0 0 1 21.207-11.038 52.689 52.689 0 0 1 25.78 0 51.296 51.296 0 0 1 21.207 11.014c.813.694 1.6 1.414 2.369 2.168a47.013 47.013 0 0 1 2.213 2.313 50.015 50.015 0 0 1 11.239 20.78h13.227a61.345 61.345 0 0 0-4.072-12.63 62.696 62.696 0 0 0-7.452-12.606 62.34 62.34 0 0 0-5.991-6.777 65.617 65.617 0 0 0-6.916-5.87 64.915 64.915 0 0 0-25.824-11.36 66.45 66.45 0 0 0-25.78 0 64.95 64.95 0 0 0-25.78 11.368 66.556 66.556 0 0 0-6.916 5.87 63.198 63.198 0 0 0-5.983 6.777 62.243 62.243 0 0 0-11.593 25.262h37.382v12.631a24.72 24.72 0 0 0 3.458 12.63 25.497 25.497 0 0 0 9.44 9.251 26.067 26.067 0 0 0 12.891 3.389h44.696a50.365 50.365 0 0 1-5.991 8.149 52.037 52.037 0 0 1-2.213 2.321 47.74 47.74 0 0 1-2.369 2.169 51.751 51.751 0 0 1-8.308 5.87 51.76 51.76 0 0 1-12.899 5.168 52.948 52.948 0 0 1-25.78 0 51.706 51.706 0 0 1-12.925-5.151 51.761 51.761 0 0 1-8.317-5.93 63.095 63.095 0 0 1-2.36-2.168 43.847 43.847 0 0 1-2.213-2.321 50.015 50.015 0 0 1-11.239-20.78H36.842a62.33 62.33 0 0 0 11.593 25.269 63.217 63.217 0 0 0 5.983 6.778 64.957 64.957 0 0 0 32.696 17.239 66.446 66.446 0 0 0 25.78 0 64.912 64.912 0 0 0 32.679-17.231 62.311 62.311 0 0 0 5.992-6.777 62.794 62.794 0 0 0 7.521-12.639 61.48 61.48 0 0 0 4.072-12.631l-37.365.017zm-12.899 0h-12.89a13.12 13.12 0 0 1-4.934-.959 12.914 12.914 0 0 1-4.183-2.738 12.607 12.607 0 0 1-2.794-4.099 12.401 12.401 0 0 1-.979-4.835v-12.63h12.89a13.105 13.105 0 0 1 4.936.956 12.889 12.889 0 0 1 4.184 2.738 12.606 12.606 0 0 1 2.794 4.1 12.38 12.38 0 0 1 .976 4.836v12.631z" fill="#fff"/></svg>
